X: 170
T:Rav Brachot
C:Matitiahu Shelem 1958
O:Israeli
D: Israeli Folk Dance Party (Tikva 145)
F: http://www.youtube.com/watch?v=bNnbfxc2138
L:1/8
M:4/4
Q:1/4=120 
K:Em
  "Em"E2 ED E2 G2    | "D"FGFE "Em"E3 z   | "Em"E2 ED E2 G2| "D"FGFE "Em"E3 z    |\ 
  "Am"A2 AG A2 B2    | A6 z2              |
  A2 AG A2 c2        | "Em"Bd BG "D"A2 z F|\
|:"Em"G2 GF "Am"A2-AG| "D"F2 FE "Em"G3 F  | E2 E2 EF GA    | "D"F2 FE "Em"E2 z2  :|



